dist/images/user.svg

<svg width="40" height="48" viewBox="0 0 40 48" fill="none" xmlns="http://www.w3.org/2000/svg">
<path fill-rule="evenodd" clip-rule="evenodd" d="M29 13C29 17.9706 24.9706 22 20 22C15.0294 22 11 17.9706 11 13C11 8.02944 15.0294 4 20 4C24.9706 4 29 8.02944 29 13ZM33 13C33 20.1797 27.1797 26 20 26C12.8203 26 7 20.1797 7 13C7 5.8203 12.8203 0 20 0C27.1797 0 33 5.8203 33 13ZM36 47V48H40V47C40 35.9543 31.0457 27 20 27C8.95431 27 0 35.9543 0 47V48H4V47C4 38.1634 11.1634 31 20 31C28.8366 31 36 38.1634 36 47Z" fill="black"/>
</svg>

<svg width="40" height="48" fill="none" xmlns="http://www.w3.org/2000/svg"><path fill-rule="evenodd" clip-rule="evenodd" d="M29 13a9 9 0 11-18 0 9 9 0 0118 0zm4 0c0 7.18-5.82 13-13 13S7 20.18 7 13 12.82 0 20 0s13 5.82 13 13zm3 34v1h4v-1c0-11.046-8.954-20-20-20S0 35.954 0 47v1h4v-1c0-8.837 7.163-16 16-16s16 7.163 16 16z" fill="#000"/></svg>
